X: 262
T: Fang fengzheng
L: 1/16
M: 2/4
K: G
d g e d d B A B [I:setbarnb 1]| 
d g e d d B A B | 
G2> E2 d g e d | 
d B A EG4 | 
G A B2 g2 e d | 
G A B B d B A G | 
G E D2 d2 E G | 
A B G ED4 | 
G A B B d B A G | 
G E D2 d2 E G | 
A B G ED4 |]

@@@ Tune index: 9136
